X:1
T: An Honourable Peace
C:Donald Dow
R:Reel
I:speed 232
Q:232
K:Em
M:4/4
L:1/8
|:F|E2BG E2B,E|D2FD AFDF|E2BG E2GB|eB dA BE EF|
E2BG E2B,E|D2FD AFDF|E2BG E2GB|eB dA BE EF|
E2BA Bd ef|dB Ad FD AF|E2BA Bd eg|fd AF BE EF|
E2BA Bd ef|dB Ad FA DF|GB EF GA Bg|f^d Bd eEE:|
